images/ICONOS/CEGID/PLANES ICON.svg

<svg width="34" height="34" viewBox="0 0 34 34" fill="none" xmlns="http://www.w3.org/2000/svg">
<path d="M5.66455 10.7459C6.33314 10.7459 6.95261 10.7459 7.60987 10.7459C6.68348 8.82744 6.52672 6.87786 7.22741 4.88766C7.7534 3.39525 8.68451 2.20037 9.98391 1.29926C12.5921 -0.511473 16.0871 -0.413238 18.6198 1.49195C20.8805 3.19217 22.5963 6.83536 20.7351 10.7383C22.8834 10.7383 25.0195 10.7383 27.1943 10.7383C27.1943 10.607 27.1943 10.4804 27.1943 10.3548C27.1943 8.27676 27.1886 6.19966 27.2037 4.12162C27.2056 3.91948 27.2849 3.6635 27.4228 3.52749C27.7259 3.229 28.2538 3.43209 28.3067 3.86848C28.335 4.10462 28.4512 4.18018 28.6278 4.26803C30.2624 5.08224 31.8951 5.90118 33.5279 6.72106C33.9528 6.93453 34.1171 7.25191 33.9122 7.55511C33.8046 7.71475 33.6015 7.83848 33.4155 7.91405C31.932 8.51857 30.4418 9.10798 28.9545 9.70306C28.2878 9.97037 28.2878 9.97131 28.352 10.7629C28.472 10.7629 28.5966 10.7629 28.7222 10.7629C29.6901 10.7629 30.6581 10.7591 31.6251 10.7638C33.0264 10.7704 33.9934 11.7254 33.9944 13.1167C33.9972 19.2904 33.9972 25.4641 33.9944 31.6387C33.9934 33.03 33.0227 33.9982 31.6307 33.9982C21.9655 34.0001 12.2994 34.001 2.6342 33.9982C1.09495 33.9982 0.00236082 32.9016 0.00236082 31.3619C-0.000472164 24.1379 -0.00141649 16.9129 0.00330515 9.68889C0.000472164 8.17947 1.02129 7.01766 2.49822 6.81457C3.82972 6.63133 5.15084 7.49655 5.53801 8.82366C5.61639 9.09192 5.64283 9.37907 5.65983 9.6596C5.67966 10.011 5.66455 10.3643 5.66455 10.7459ZM30.0273 16.9469C30.4843 17.1368 30.6524 17.3663 30.5816 17.6912C30.5117 18.0096 30.2992 18.1305 29.8035 18.1314C29.4616 18.1314 29.1179 18.1172 28.777 18.138C28.623 18.1475 28.4465 18.189 28.3256 18.2769C26.504 19.603 24.688 20.9377 22.8796 22.2809C22.7701 22.3621 22.6766 22.5369 22.67 22.6729C22.6256 23.5693 21.9778 24.2843 21.1109 24.3599C20.2525 24.4345 19.396 23.8696 19.3309 23.0006C19.2855 22.3923 18.9522 22.1496 18.5518 21.8719C18.3289 21.717 18.1108 21.5555 17.8908 21.3968C17.0022 20.7564 16.1135 20.115 15.2249 19.4746C14.6338 19.8656 14.0247 19.9714 13.4043 19.6389C13.1814 19.519 13.052 19.5653 12.8773 19.7022C11.9009 20.4645 10.916 21.2164 9.93386 21.9711C9.20389 22.5321 8.47865 23.0979 7.74207 23.6505C7.36906 23.9301 6.92051 23.7903 6.81097 23.3737C6.73353 23.08 6.88273 22.8854 7.10748 22.7135C8.83183 21.3949 10.5543 20.0725 12.2692 18.7416C12.3749 18.6594 12.476 18.4818 12.4665 18.3572C12.3834 17.3314 13.1087 16.4624 14.0983 16.434C15.1182 16.4038 15.8841 17.2105 15.8642 18.2674C15.8614 18.4006 15.9473 18.5839 16.0531 18.6623C17.039 19.3924 18.0381 20.1046 19.0334 20.8225C19.2988 21.0142 19.566 21.2031 19.8238 21.3883C20.617 20.8017 21.3782 20.8423 22.1346 21.4128C23.5992 20.336 25.0535 19.2668 26.5068 18.1975C26.1423 18.1324 25.8052 18.1739 25.486 18.1163C25.2971 18.0823 25.061 17.9264 24.9864 17.7621C24.9185 17.6128 24.9997 17.3569 25.0894 17.1859C25.1479 17.0735 25.3368 17.0291 25.4935 16.9384C25.4935 16.4123 25.485 15.8578 25.4954 15.3043C25.5077 14.6611 25.9723 14.1964 26.6154 14.1699C26.7996 14.1623 26.9846 14.169 27.166 14.169C27.166 13.3869 27.166 12.652 27.166 11.9001C27.0111 11.9001 26.8817 11.9001 26.7523 11.9001C24.6276 11.9001 22.5038 11.9058 20.3791 11.8935C20.0958 11.8916 19.9097 11.9681 19.718 12.1863C16.9398 15.3648 12.1115 15.6274 9.12362 12.6917C8.48526 12.0645 7.88655 11.7953 7.03949 11.8907C6.58999 11.9407 6.13105 11.8992 5.66266 11.8992C5.66266 12.0947 5.66266 12.2354 5.66266 12.3762C5.66266 17.4759 5.66455 22.5756 5.66172 27.6753C5.66077 29.0685 4.69189 30.0282 3.29807 30.0348C3.02704 30.0358 2.75508 30.0254 2.48405 30.0395C1.47551 30.0905 0.841868 31.1145 1.25926 32.0307C1.5435 32.6531 2.06194 32.8723 2.72486 32.8723C12.3315 32.8676 21.9382 32.8695 31.5457 32.8685C32.4306 32.8685 32.8593 32.4331 32.8593 31.5348C32.8593 25.4319 32.8593 19.3282 32.8593 13.2253C32.8593 13.1309 32.8631 13.0364 32.8546 12.942C32.8102 12.4149 32.4136 11.937 31.8914 11.9218C30.7157 11.8869 29.5381 11.9105 28.3473 11.9105C28.3473 12.669 28.3473 13.4048 28.3473 14.1661C28.4956 14.1661 28.623 14.1652 28.7505 14.1661C29.5749 14.1727 30.0225 14.6167 30.0254 15.4347C30.0292 15.9391 30.0273 16.4463 30.0273 16.9469ZM14.1512 13.5956C17.581 13.6013 20.3819 10.8224 20.3951 7.40115C20.4083 3.94876 17.632 1.14057 14.1928 1.12924C10.7479 1.11696 7.93755 3.90437 7.92999 7.34164C7.92244 10.7884 10.7101 13.5909 14.1512 13.5956ZM1.13083 29.3292C1.79753 28.8872 2.48028 28.89 3.16775 28.8966C4.11302 28.9061 4.53041 28.4848 4.53041 27.544C4.53041 21.8313 4.53041 16.1185 4.53041 10.4058C4.53041 10.1224 4.53797 9.83907 4.52664 9.5557C4.49075 8.65175 3.74568 7.93483 2.84479 7.92916C1.85891 7.92255 1.13178 8.68387 1.13178 9.73895C1.12989 16.1601 1.13083 22.5803 1.13083 29.0015C1.13083 29.0836 1.13083 29.1658 1.13083 29.3292ZM28.3492 5.39773C28.3492 6.53026 28.3492 7.60801 28.3492 8.72354C29.5797 8.23142 30.7771 7.75253 32.0425 7.24624C30.7884 6.61811 29.591 6.01925 28.3492 5.39773ZM26.6447 16.9772C27.3954 16.9772 28.1301 16.9772 28.8714 16.9772C28.8714 16.4114 28.8714 15.8654 28.8714 15.3223C28.1141 15.3223 27.3794 15.3223 26.6447 15.3223C26.6447 15.8862 26.6447 16.4236 26.6447 16.9772ZM14.1692 17.5656C13.8651 17.5618 13.6063 17.8103 13.5978 18.1144C13.5884 18.4308 13.8566 18.7 14.1729 18.6944C14.4789 18.6887 14.7273 18.4337 14.7254 18.1286C14.7244 17.8225 14.4732 17.5684 14.1692 17.5656ZM20.9561 23.2283C21.2601 23.2311 21.5189 22.9818 21.5264 22.6785C21.5349 22.3602 21.2696 22.0939 20.9504 22.0995C20.6454 22.1052 20.398 22.3593 20.3989 22.6663C20.3998 22.9714 20.651 23.2254 20.9561 23.2283Z" fill="#2AB981"/>
<path d="M7.92905 25.9335C7.98287 25.8636 8.06598 25.6851 8.20479 25.5859C8.74211 25.2034 9.29832 24.8463 9.84698 24.4789C10.0783 24.324 10.3088 24.323 10.5401 24.4779C10.9027 24.7197 11.2776 24.9464 11.6251 25.2081C11.8338 25.3649 11.9849 25.3451 12.1823 25.1996C12.4949 24.9682 12.8348 24.7755 13.1474 24.5441C13.459 24.3126 13.7414 24.323 14.0511 24.5478C14.3854 24.7896 14.7433 24.9974 15.0786 25.2374C15.2353 25.3498 15.3505 25.363 15.5148 25.244C15.868 24.988 16.241 24.7604 16.5989 24.511C16.8643 24.3259 17.1145 24.3211 17.3827 24.5044C17.8983 24.8567 18.4234 25.1958 18.9399 25.5481C19.2874 25.7852 19.3601 26.0941 19.1533 26.3888C18.9541 26.6731 18.6594 26.7137 18.3157 26.4908C17.9399 26.2481 17.5772 25.9817 17.192 25.754C17.0919 25.6955 16.8992 25.6955 16.7991 25.754C16.4337 25.9675 16.0814 26.2074 15.7377 26.4559C15.4393 26.6712 15.1645 26.6797 14.8623 26.4634C14.5176 26.2159 14.1522 25.9977 13.8084 25.7493C13.646 25.6313 13.5289 25.6426 13.3712 25.7559C13.0171 26.01 12.645 26.2396 12.2871 26.488C12.0208 26.6731 11.7687 26.6703 11.5024 26.4861C11.1539 26.2443 10.7894 26.0251 10.4466 25.7748C10.2672 25.6445 10.135 25.6341 9.94991 25.7692C9.57879 26.0403 9.19539 26.2962 8.80255 26.5343C8.3946 26.7817 7.92338 26.5106 7.92905 25.9335Z" fill="#2AB981"/>
<path d="M19.2666 28.7644C19.2657 29.3547 18.7983 29.6173 18.3865 29.3661C17.9946 29.1261 17.6103 28.8711 17.2392 28.601C17.0531 28.4659 16.9209 28.4772 16.7425 28.6076C16.3997 28.8579 16.0361 29.078 15.6867 29.3198C15.4204 29.5049 15.1683 29.503 14.902 29.3179C14.5431 29.0695 14.1711 28.8399 13.8169 28.5859C13.6583 28.4725 13.5402 28.465 13.3788 28.5821C13.035 28.8305 12.6705 29.0506 12.3239 29.2962C12.0369 29.5002 11.7677 29.5077 11.4778 29.3018C11.1511 29.0695 10.8008 28.8702 10.4825 28.6265C10.2644 28.4602 10.1048 28.4772 9.8942 28.6359C9.56462 28.8834 9.21428 29.1035 8.86771 29.3273C8.52398 29.5484 8.22651 29.5077 8.02915 29.2253C7.82612 28.9344 7.90261 28.617 8.2454 28.3847C8.76289 28.0342 9.28794 27.6951 9.80448 27.3428C10.0736 27.1586 10.3229 27.1615 10.5892 27.3456C10.9481 27.5931 11.3211 27.8217 11.6771 28.073C11.8338 28.1835 11.95 28.1957 12.1143 28.0767C12.4665 27.8208 12.8414 27.5941 13.2003 27.3466C13.4666 27.1624 13.7178 27.1586 13.985 27.3428C14.325 27.5771 14.6791 27.7905 15.0134 28.0323C15.2089 28.174 15.36 28.2052 15.5705 28.0427C15.8963 27.7915 16.2571 27.5846 16.5961 27.3494C16.8605 27.1662 17.1117 27.1567 17.3808 27.34C17.9068 27.6989 18.447 28.0371 18.9654 28.4064C19.1146 28.5112 19.209 28.6926 19.2666 28.7644Z" fill="#2AB981"/>
<path d="M20.6435 15.906C21.0656 15.6085 21.3753 14.9388 21.9145 15.48C22.4519 16.0194 21.7814 16.3282 21.5038 16.7212C21.6492 16.8742 21.8003 17.0187 21.9353 17.1774C22.161 17.4419 22.1506 17.746 21.9212 17.968C21.7021 18.1805 21.4112 18.1909 21.1553 17.9803C20.9938 17.8471 20.8493 17.6931 20.6095 17.4645C20.4792 17.6374 20.3772 17.815 20.2355 17.951C19.9806 18.1947 19.6746 18.1919 19.4461 17.9746C19.2072 17.7479 19.1987 17.4287 19.4413 17.1547C19.566 17.014 19.7124 16.894 19.8861 16.7297C19.7445 16.5861 19.6227 16.4661 19.5046 16.3433C19.2147 16.0411 19.1854 15.7162 19.4253 15.4706C19.667 15.2231 20.0004 15.2429 20.2969 15.5301C20.4131 15.6434 20.5188 15.7709 20.6435 15.906Z" fill="#2AB981"/>
<path d="M29.184 23.2113C28.7902 23.4682 28.4861 24.1795 27.9299 23.6061C27.3954 23.0545 28.0961 22.7645 28.3407 22.3791C28.0895 21.9937 27.419 21.7217 27.946 21.1219C28.2085 20.8225 28.4625 20.9235 29.1859 21.563C29.3219 21.4298 29.4559 21.2881 29.6004 21.1569C29.8715 20.9103 30.1935 20.9028 30.4229 21.1285C30.6543 21.3562 30.6534 21.682 30.4088 21.9493C30.2822 22.0872 30.1378 22.2091 29.9791 22.3593C30.1472 22.5369 30.2973 22.6823 30.4324 22.841C30.6581 23.1074 30.6486 23.4106 30.4182 23.6326C30.1982 23.8451 29.9102 23.8536 29.6505 23.6477C29.5674 23.5816 29.4975 23.5013 29.4201 23.4285C29.3445 23.3577 29.268 23.2887 29.184 23.2113Z" fill="#2AB981"/>
<path d="M24.6342 27.7612C24.5284 27.7612 24.4208 27.7698 24.316 27.7594C23.9968 27.7272 23.7966 27.5062 23.7975 27.1964C23.7985 26.8866 23.9977 26.6637 24.3188 26.6372C24.5067 26.6221 24.6965 26.6268 24.8845 26.6325C25.2603 26.6448 25.4832 26.8488 25.4926 27.1813C25.502 27.527 25.2707 27.748 24.8826 27.7631C24.8004 27.766 24.7173 27.7641 24.6352 27.7641C24.6342 27.7641 24.6342 27.7622 24.6342 27.7612Z" fill="#2AB981"/>
<path d="M27.4851 27.765C26.8836 27.765 26.6409 27.6092 26.6296 27.2153C26.6182 26.8063 26.8751 26.6316 27.4861 26.6316C28.0744 26.6316 28.3246 26.8016 28.3246 27.1992C28.3246 27.5969 28.0744 27.765 27.4851 27.765Z" fill="#2AB981"/>
<path d="M30.3228 27.765C29.709 27.765 29.4541 27.5922 29.4635 27.1841C29.4729 26.7893 29.7166 26.6316 30.3162 26.6316C30.9112 26.6316 31.1567 26.7959 31.1586 27.1945C31.1605 27.5931 30.9093 27.765 30.3228 27.765Z" fill="#2AB981"/>
<path d="M13.596 5.36467C13.596 4.74031 13.5931 4.11595 13.5969 3.49065C13.5997 3.0741 13.8169 2.82851 14.1682 2.83323C14.5157 2.83701 14.7273 3.0826 14.7282 3.50387C14.731 4.59957 14.7367 5.69527 14.7235 6.79096C14.7207 7.03655 14.7943 7.20751 14.97 7.37376C15.3722 7.75442 15.7575 8.15208 16.1475 8.54502C16.4856 8.88695 16.5205 9.20527 16.2542 9.46408C15.9974 9.71439 15.6839 9.68133 15.36 9.36018C14.8576 8.86334 14.3439 8.37594 13.8698 7.85265C13.7206 7.6883 13.6215 7.42476 13.6092 7.2009C13.5724 6.59166 13.596 5.97674 13.596 5.36467Z" fill="#2AB981"/>
</svg>

<svg width="34" height="34" fill="none" xmlns="http://www.w3.org/2000/svg"><path d="M5.665 10.746H7.61c-.927-1.919-1.083-3.868-.383-5.858.526-1.493 1.458-2.688 2.757-3.589 2.608-1.81 6.103-1.712 8.636.193 2.26 1.7 3.976 5.343 2.115 9.246h6.46v-.383c0-2.078-.006-4.155.009-6.233.002-.203.08-.458.219-.595.303-.298.83-.095.884.341.028.237.144.312.32.4 1.635.814 3.268 1.633 4.9 2.453.426.214.59.53.385.834-.107.16-.31.283-.496.359-1.484.605-2.974 1.194-4.461 1.79-.667.266-.667.267-.603 1.059h.37c.968 0 1.936-.004 2.903 0 1.401.007 2.368.962 2.37 2.354.002 6.173.002 12.347 0 18.522-.002 1.391-.972 2.36-2.364 2.36-9.666.001-19.332.002-28.997 0-1.539 0-2.632-1.097-2.632-2.637C0 24.138 0 16.912.003 9.689 0 8.179 1.021 7.018 2.498 6.815c1.332-.184 2.653.682 3.04 2.009.078.268.105.555.122.836.02.351.005.704.005 1.086Zm24.362 6.2c.457.19.625.42.555.745-.07.319-.283.44-.779.44-.341 0-.685-.014-1.026.007a.894.894 0 0 0-.451.139 705.236 705.236 0 0 0-5.446 4.004.587.587 0 0 0-.21.392c-.044.896-.692 1.611-1.56 1.687-.857.075-1.714-.49-1.78-1.36-.044-.608-.378-.85-.778-1.128-.223-.155-.441-.317-.661-.475l-2.666-1.922c-.591.39-1.2.496-1.82.164-.224-.12-.353-.074-.528.063-.976.762-1.961 1.514-2.943 2.27-.73.56-1.455 1.126-2.192 1.678-.373.28-.821.14-.931-.276-.077-.294.072-.489.296-.66a911.598 911.598 0 0 0 5.162-3.972c.106-.083.207-.26.197-.385-.083-1.026.643-1.895 1.632-1.923 1.02-.03 1.786.776 1.766 1.833a.548.548 0 0 0 .19.395c.985.73 1.984 1.443 2.98 2.16.265.192.532.381.79.566.793-.586 1.554-.546 2.31.025l4.373-3.215c-.365-.066-.702-.024-1.021-.082-.189-.034-.425-.19-.5-.354-.067-.15.014-.405.103-.576.059-.113.248-.157.405-.248 0-.526-.009-1.08.001-1.634.013-.643.477-1.108 1.12-1.134.185-.008.37-.001.551-.001V11.9h-.414c-2.124 0-4.248.006-6.373-.007-.283-.001-.47.075-.661.293-2.778 3.179-7.607 3.441-10.594.506-.639-.627-1.237-.897-2.085-.801-.449.05-.908.008-1.376.008v.477c0 5.1.002 10.2-.001 15.3-.001 1.393-.97 2.352-2.364 2.359-.271 0-.543-.01-.814.005a1.405 1.405 0 0 0-1.225 1.99c.285.623.803.842 1.466.842 9.607-.004 19.213-.002 28.82-.004.886 0 1.314-.435 1.314-1.333v-18.31c0-.094.004-.189-.004-.283-.045-.527-.441-1.005-.964-1.02-1.175-.035-2.353-.011-3.544-.011v2.255h.403c.825.007 1.273.45 1.275 1.269.004.504.002 1.011.002 1.512Zm-15.876-3.35c3.43.005 6.23-2.774 6.244-6.195.013-3.452-2.763-6.26-6.202-6.272-3.445-.012-6.255 2.775-6.263 6.213-.008 3.446 2.78 6.249 6.221 6.254ZM1.131 29.329c.667-.442 1.35-.439 2.037-.432.945.01 1.362-.412 1.362-1.353V10.406c0-.284.008-.567-.003-.85a1.697 1.697 0 0 0-1.682-1.627c-.986-.006-1.713.755-1.713 1.81C1.13 16.16 1.13 22.58 1.13 29.001v.328ZM28.349 5.398v3.326l3.693-1.478-3.693-1.848Zm-1.704 11.58h2.226v-1.656h-2.226v1.655Zm-12.476.588a.57.57 0 0 0-.571.548.571.571 0 0 0 .575.58.566.566 0 0 0 .552-.565.567.567 0 0 0-.556-.563Zm6.787 5.662a.57.57 0 0 0 .57-.55.569.569 0 0 0-.576-.579.566.566 0 0 0-.551.567c0 .305.252.56.557.562Z" fill="#2AB981"/><path d="M7.93 25.933c.053-.07.136-.248.275-.347.537-.383 1.093-.74 1.642-1.107a.575.575 0 0 1 .693-.001c.363.242.738.468 1.085.73.209.157.36.137.557-.008.313-.232.653-.424.965-.656.312-.231.594-.221.904.004.334.242.692.45 1.028.69.156.112.271.125.436.006.353-.256.726-.484 1.084-.733.265-.185.515-.19.784-.007.515.353 1.04.692 1.557 1.044.347.237.42.546.213.84-.199.285-.494.326-.837.103-.376-.243-.739-.51-1.124-.737a.462.462 0 0 0-.393 0 13.12 13.12 0 0 0-1.061.702c-.299.215-.573.224-.876.007-.344-.247-.71-.465-1.054-.714-.162-.118-.28-.106-.437.007-.354.254-.726.484-1.084.732-.266.185-.518.182-.785-.002-.348-.242-.713-.46-1.055-.711-.18-.13-.312-.14-.497-.006-.371.271-.755.527-1.147.765-.408.248-.88-.023-.874-.6ZM19.267 28.764c-.001.59-.469.853-.88.602-.392-.24-.777-.495-1.148-.765-.186-.135-.318-.124-.497.007-.342.25-.706.47-1.055.712-.267.185-.519.183-.785-.002-.359-.248-.73-.478-1.085-.732-.159-.113-.277-.121-.438-.004-.344.248-.708.469-1.055.714-.287.204-.556.212-.846.006-.327-.232-.677-.432-.995-.675-.219-.167-.378-.15-.589.009-.33.247-.68.468-1.026.691-.344.221-.641.18-.839-.102-.203-.29-.126-.608.216-.84.518-.35 1.043-.69 1.56-1.042.269-.184.518-.181.784.003.36.247.732.476 1.088.727.157.11.273.123.437.004.352-.256.727-.483 1.086-.73.267-.185.518-.188.785-.004.34.234.694.448 1.028.69.196.141.347.172.557.01.326-.252.687-.458 1.026-.694.264-.183.516-.192.785-.009.526.359 1.066.697 1.584 1.066.15.105.244.287.302.358ZM20.643 15.906c.423-.298.732-.967 1.271-.426.538.54-.133.848-.41 1.241.145.153.296.298.431.456.226.265.216.569-.014.791-.219.212-.51.223-.766.012-.161-.133-.306-.287-.546-.515-.13.172-.232.35-.374.486-.254.244-.56.24-.789.024-.239-.227-.247-.546-.005-.82.125-.141.271-.261.445-.425-.142-.144-.263-.264-.381-.387-.29-.302-.32-.627-.08-.872.242-.248.575-.228.872.06.116.112.222.24.346.375ZM29.184 23.211c-.394.257-.698.969-1.254.395-.535-.552.166-.841.41-1.227-.25-.385-.921-.657-.394-1.257.262-.3.516-.198 1.24.441.136-.133.27-.275.414-.406.271-.247.593-.254.823-.029.231.228.23.554-.014.821-.127.138-.271.26-.43.41.168.178.318.323.453.482.226.266.217.57-.014.792-.22.212-.508.22-.767.015-.084-.066-.154-.147-.23-.22l-.237-.217ZM24.634 27.761c-.106 0-.213.009-.318-.002-.32-.032-.52-.253-.518-.563 0-.31.2-.532.52-.559.189-.015.378-.01.566-.005.376.013.6.217.609.55.009.345-.222.566-.61.581-.083.003-.166.001-.248.001v-.003ZM27.485 27.765c-.601 0-.844-.156-.855-.55-.012-.409.245-.583.856-.583.588 0 .839.17.839.567 0 .398-.25.566-.84.566ZM30.323 27.765c-.614 0-.869-.173-.86-.58.01-.396.254-.553.853-.553.595 0 .84.164.843.563.002.398-.25.57-.836.57ZM13.596 5.365c0-.625-.003-1.25 0-1.874.004-.417.22-.662.572-.658.348.004.56.25.56.67.003 1.097.009 2.192-.005 3.288a.72.72 0 0 0 .247.583c.402.38.787.778 1.178 1.171.338.342.372.66.106.92-.257.25-.57.216-.894-.105-.502-.497-1.016-.984-1.49-1.507a1.129 1.129 0 0 1-.26-.652c-.038-.61-.014-1.224-.014-1.836Z" fill="#2AB981"/></svg>
